style/svgs/up_arrow.svg

<?xml version="1.0" encoding="UTF-8"?>
<svg width="100px" height="100px" viewBox="0 0 100 100" version="1.1" xmlns="http://www.w3.org/2000/svg" xmlns:xlink="http://www.w3.org/1999/xlink">
    <title>Artboard Copy 287</title>
    <g id="Artboard-Copy-287" stroke="none" stroke-width="1" fill="none" fill-rule="evenodd">
        <path d="M49.5,98 C50.4731544,98 51.2785235,97.6872219 51.9161074,97.0616658 C52.5536913,96.4361096 52.8724832,95.6330308 52.8724832,94.6524293 L52.8724832,24.1505606 L52.5958389,13.3429792 L66.0604027,27.9546183 L81.3624161,43.2215697 C81.6644295,43.5258943 82.0251678,43.7541377 82.4446309,43.9063001 C82.864094,44.0584624 83.3087248,44.1345435 83.7785235,44.1345435 C84.6845638,44.1345435 85.4479866,43.813312 86.0687919,43.1708489 C86.6895973,42.5283858 87,41.7337605 87,40.7869728 C87,39.8739989 86.6644295,39.0455597 85.9932886,38.3016551 L52.0167785,4.11585691 C51.6812081,3.74390461 51.3036913,3.46494038 50.8842282,3.27896423 C50.4647651,3.09298808 50.0033557,3 49.5,3 C49.0302013,3 48.5855705,3.09298808 48.1661074,3.27896423 C47.7466443,3.46494038 47.352349,3.74390461 46.9832215,4.11585691 L13.057047,38.3016551 C12.352349,39.0455597 12,39.8739989 12,40.7869728 C12,41.7337605 12.3104027,42.5283858 12.9312081,43.1708489 C13.5520134,43.813312 14.3322148,44.1345435 15.2718121,44.1345435 C15.7080537,44.1345435 16.1442953,44.0584624 16.5805369,43.9063001 C17.0167785,43.7541377 17.3691275,43.5258943 17.6375839,43.2215697 L32.9395973,27.9546183 L46.4492617,13.2845489 L46.1778523,24.1505606 L46.1778523,94.6524293 C46.1778523,95.6330308 46.488255,96.4361096 47.1090604,97.0616658 C47.7298658,97.6872219 48.5268456,98 49.5,98 Z" id="􀄨" fill="#3E3E3E" fill-rule="nonzero"></path>
    </g>
</svg>

<svg width="100" height="100" xmlns="http://www.w3.org/2000/svg"><path d="M49.5 98c.973 0 1.779-.313 2.416-.938.638-.626.956-1.429.956-2.41V24.151l-.276-10.808L66.06 27.955l15.302 15.267c.302.304.663.532 1.083.684.42.152.864.229 1.334.229.906 0 1.669-.322 2.29-.964.62-.643.931-1.437.931-2.384 0-.913-.336-1.741-1.007-2.485L52.017 4.116a3.35 3.35 0 0 0-1.133-.837A3.377 3.377 0 0 0 49.5 3c-.47 0-.914.093-1.334.279-.42.186-.814.465-1.183.837L13.057 38.302c-.705.744-1.057 1.572-1.057 2.485 0 .947.31 1.741.931 2.384.621.642 1.401.964 2.34.964.437 0 .873-.077 1.31-.229.436-.152.788-.38 1.057-.684L32.94 27.955l13.51-14.67-.272 10.866v70.501c0 .981.31 1.784.931 2.41.62.625 1.418.938 2.391.938Z" fill="#3E3E3E" fill-rule="nonzero"/></svg>
